public/signs/germany/330.1_autobahn.svg

<?xml version="1.0" encoding="UTF-8" standalone="no"?>
<svg xmlns:dc="http://purl.org/dc/elements/1.1/" xmlns:cc="http://creativecommons.org/ns#" xmlns:rdf="http://www.w3.org/1999/02/22-rdf-syntax-ns#" xmlns:svg="http://www.w3.org/2000/svg" xmlns="http://www.w3.org/2000/svg" viewBox="0 0 601.00134 601.00159" height="601.00159" width="601.00134" xml:space="preserve" version="1.1" id="svg4145"><metadata id="metadata4151"><rdf:RDF><cc:Work rdf:about=""><dc:format>image/svg+xml</dc:format><dc:type rdf:resource="http://purl.org/dc/dcmitype/StillImage"/><dc:title/></cc:Work></rdf:RDF></metadata><defs id="defs4149"/><g transform="matrix(1.25,0,0,-1.25,0,601.00159)" id="g4153"><g id="g4155"><path id="path4157" style="fill:#ffffff;fill-opacity:1;fill-rule:nonzero;stroke:none" d="M 29.199,480.403 C 0.336,480.418 0.398,451.598 0.398,451.598 l 0,-422.398 c 0,0 -0.062,-28.825 28.801,-28.797 l 422.403,0 C 480.652,0.372 480.398,29.2 480.398,29.2 l 0,422.398 c 0,0 0.239,28.899 -28.796,28.805 l -422.403,0 z"/><path id="path4159" style="fill:#154889;fill-opacity:1;fill-rule:nonzero;stroke:none" d="M 29.199,470.801 C 18.598,470.801 10,462.204 10,451.602 L 10,29.2 C 10,18.59 18.598,10 29.199,10 l 422.403,0 c 10.601,0 19.199,8.59 19.199,19.2 l 0,422.402 c 0,10.602 -8.598,19.199 -19.199,19.199 l -422.403,0 z"/><path id="path4161" style="fill:#000000;fill-opacity:1;fill-rule:nonzero;stroke:none" d="M 29.199,480.801 C 14.633,480.809 7.258,473.485 3.617,466.184 -0.023,458.883 0,451.594 0,451.594 L 0,29.2 C 0,29.2 -0.02,21.911 3.617,14.614 7.258,7.313 14.633,-0.011 29.199,0 l 422.403,0 c 14.656,-0.015 22.035,7.313 25.652,14.614 3.613,7.297 3.547,14.582 3.547,14.586 l 0,422.398 c 0,0.004 0.062,7.309 -3.555,14.613 -3.617,7.309 -10.996,14.637 -25.644,14.59 l -422.403,0 z m 0,-0.398 422.403,0 c 29.035,0.094 28.796,-28.805 28.796,-28.805 l 0,-422.398 c 0,0 0.254,-28.828 -28.796,-28.797 l -422.403,0 C 0.336,0.375 0.398,29.2 0.398,29.2 l 0,422.398 c 0,0 -0.062,28.82 28.801,28.805 z"/><path id="path4163" style="fill:#ffffff;fill-opacity:1;fill-rule:nonzero;stroke:none" d="m 252.34,305.418 -4.711,122.79 21.672,0 42.515,-122.79 -59.476,0 z m -83.34,0 42.512,122.79 21.676,0 -4.727,-122.79 -59.461,0 z m -76.68,-50.582 0,21.676 -39.726,0 0,14.453 375.613,0 0,-14.453 -39.727,0 0,-21.676 -36.113,0 0,21.676 -223.929,0 0,-21.676 -36.118,0 z m 169.75,-202.253 -7.765,202.253 75.004,0 70.015,-202.253 -137.254,0 z m -180.593,0 70.015,202.253 75.02,0 -7.782,-202.253"/></g></g><style xmlns="" id="autoconsent-prehide"/></svg>

<svg xmlns="http://www.w3.org/2000/svg" xml:space="preserve" width="601.001" height="601.002"><path d="M29.199 480.403C.336 480.418.398 451.598.398 451.598V29.2S.336.375 29.199.403h422.403C480.652.372 480.398 29.2 480.398 29.2v422.398s.239 28.899-28.796 28.805H29.199z" style="fill:#fff;fill-opacity:1;fill-rule:nonzero;stroke:none" transform="matrix(1.25 0 0 -1.25 0 601.002)"/><path d="M29.199 470.801c-10.601 0-19.199-8.597-19.199-19.199V29.2C10 18.59 18.598 10 29.199 10h422.403c10.601 0 19.199 8.59 19.199 19.2v422.402c0 10.602-8.598 19.199-19.199 19.199H29.199z" style="fill:#154889;fill-opacity:1;fill-rule:nonzero;stroke:none" transform="matrix(1.25 0 0 -1.25 0 601.002)"/><path d="M29.199 480.801c-14.566.008-21.941-7.316-25.582-14.617C-.023 458.883 0 451.594 0 451.594V29.2s-.02-7.289 3.617-14.586C7.258 7.313 14.633-.011 29.199 0h422.403c14.656-.015 22.035 7.313 25.652 14.614 3.613 7.297 3.547 14.582 3.547 14.586v422.398c0 .004.062 7.309-3.555 14.613-3.617 7.309-10.996 14.637-25.644 14.59H29.199zm0-.398h422.403c29.035.094 28.796-28.805 28.796-28.805V29.2S480.652.372 451.602.403H29.199C.336.375.398 29.2.398 29.2v422.398s-.062 28.82 28.801 28.805z" style="fill:#000;fill-opacity:1;fill-rule:nonzero;stroke:none" transform="matrix(1.25 0 0 -1.25 0 601.002)"/><path d="m252.34 305.418-4.711 122.79h21.672l42.515-122.79H252.34zm-83.34 0 42.512 122.79h21.676l-4.727-122.79H169zm-76.68-50.582v21.676H52.594v14.453h375.613v-14.453H388.48v-21.676h-36.113v21.676H128.438v-21.676H92.32zM262.07 52.583l-7.765 202.253h75.004l70.015-202.253H262.07zm-180.593 0 70.015 202.253h75.02L218.73 52.583" style="fill:#fff;fill-opacity:1;fill-rule:nonzero;stroke:none" transform="matrix(1.25 0 0 -1.25 0 601.002)"/></svg>
